!!!!SEGMENT: Ros2008-Elohim_hashivenu.krn
!!!id: Ros2008
!!!AGN: sacred work
!!!voices: 4
!!!COM: Salamone Rossi
!!!OPR: Hashirim asher lishlomo
!!!OTL: Èlohim, hashivenu
**kern	**text	**kern	**text	**kern	**text	**kern	**text
*part4	*part4	*part3	*part3	*part2	*part2	*part1	*part1
*staff4	*staff4	*staff3	*staff3	*staff2	*staff2	*staff1	*staff1
*I"Bassus	*	*I"Tenor	*	*I"Altus	*	*I"Superius	*
*I'B	*	*I'T	*	*I'A	*	*I'S	*
*clefF4	*	*clefGv2	*	*clefG2	*	*clefG2	*
*k[b-]	*	*k[b-]	*	*k[b-]	*	*k[b-]	*
*M2/2	*	*M2/2	*	*M2/2	*	*M2/2	*
*met(C)	*	*met(C)	*	*met(C)	*	*met(C)	*
!!section: Èlohim, hashivenu
!!!OMD: Èlohim, hashivenu
=1	=1	=1	=1	=1	=1	=1	=1
!	!	!	!	!	!	!LO:TX:a:i:t=God,	!
1r	.	1r	.	2G	È-	1r	.
.	.	.	.	[2B-y	.	.	.
=2	=2	=2	=2	=2	=2	=2	=2
1r	.	2D	È	2B-]	.	1r	.
.	.	[2F	.	4A	.	.	.
.	.	.	.	4G	.	.	.
=3	=3	=3	=3	=3	=3	=3	=3
1r	.	2F]	.	4A	.	1r	.
.	.	.	.	4B-y	.	.	.
.	.	4E	.	[2c	.	.	.
.	.	4D	.	.	.	.	.
=4	=4	=4	=4	=4	=4	=4	=4
1r	.	4E	.	4c]	.	1r	.
.	.	4F	.	8B-yL	.	.	.
.	.	.	.	8AJ	.	.	.
.	.	4G	.	4B-y	.	.	.
.	.	4E	.	4c	.	.	.
=5	=5	=5	=5	=5	=5	=5	=5
1r	.	2F#X	.	2A	.	1r	.
.	.	[2G	.	2B-y	.	.	.
=6	=6	=6	=6	=6	=6	=6	=6
1r	.	2G]	.	1A	-lo-	1r	.
.	.	2F#X	lo-	.	.	.	.
=7	=7	=7	=7	=7	=7	=7	=7
1r	.	1G	-him,	1G	-him,	1r	.
=8	=8	=8	=8	=8	=8	=8	=8
!	!	!	!	!	!	!LO:TX:a:i:t=restore us;	!
[1G	ha-	[1d	ha-	2.g	ha-	2.b-y	ha
.	.	.	.	4f	.	4a	.
=9	=9	=9	=9	=9	=9	=9	=9
2G]	.	2d]	.	2g	.	2b-y	.
2F	-shi-	2f	-shi-	2a	-shi-	2cc	shi-
=10	=10	=10	=10	=10	=10	=10	=10
4BB-y	-ve-	2.f	-ve-	2b-y	-ve-	2.dd	-ve
4C	.	.	.	.	.	.	.
4D	.	.	.	2b-y	-nu,	.	.
4E	.	8eL	.	.	.	8ccL	.
.	.	8dJ	.	.	.	8b-yJ	.
=11	=11	=11	=11	=11	=11	=11	=11
4F	.	2c	.	2.f	ha	4a	.
4G	.	.	.	.	.	4b-y	.
4A	.	2c	-nu,	.	.	4cc	.
4F	.	.	.	4e	.	4a	.
=12	=12	=12	=12	=12	=12	=12	=12
4.G	.	2G	ha-	2d	.	2bnX	.
8F	.	.	.	.	.	.	.
2E	.	2g	-shi-	2e	shi	[2cc	.
=13	=13	=13	=13	=13	=13	=13	=13
2F	.	4.f	-ve	2a	ve	2cc]	.
.	.	8e	.	.	.	.	.
2G	.	2d	.	2g	.	2bnX	.
=14	=14	=14	=14	=14	=14	=14	=14
1C	-nu;	1e	nu;	1g	nu;	1cc	nu;
=15	=15	=15	=15	=15	=15	=15	=15
!	!	!	!	!	!	!LO:TX:a:i:t=brighten your face	!
2BB-y	v'-	2f	v'-	2b-y	v'-	2dd	v'-
2BB-y	-ha-	2f	-ha-	2b-y	-ha-	2dd	-ha-
=16	=16	=16	=16	=16	=16	=16	=16
2.F	-'er	2.f	-'er	2.a	-'er	2.cc	-'er
4F	pa-	4f	pa-	4a	pa-	4dd	pa-
=17	=17	=17	=17	=17	=17	=17	=17
1G	-nè-	1d	-nè-	1g	-nè-	1b-y	-nè-
=18	=18	=18	=18	=18	=18	=18	=18
2D	-ḥa	2d	-ḥa	2f#X	-ḥa	2a	-ḥa
!	!	!	!	!	!	!LO:TX:a:i:t=and we shall be saved.	!
2G	v'-	2BnX	v'-	2d	v'-	[2g	v'-
=19	=19	=19	=19	=19	=19	=19	=19
2C	-niv-	1c	-niv-	2e	-niv-	2g]	.
2F	-va-	.	.	2f	-va-	2a	-niv-
=20	=20	=20	=20	=20	=20	=20	=20
4BB-y	-she	1d	-va-	1f	-she-	2b-y	-va-
4C	.	.	.	.	.	.	.
4D	.	.	.	.	.	[2a	-she
4E	.	.	.	.	.	.	.
=21	=21	=21	=21	=21	=21	=21	=21
2F	.	2.c	-she-	2f	-'a,	2a]	.
2C	.	.	.	2e-X	v'-	4.g	.
.	.	4B-y	.	.	.	.	.
.	.	.	.	.	.	8a	.
=22	=22	=22	=22	=22	=22	=22	=22
4.D	.	2A	.	2d	-niv-	2f#X	.
8C	.	.	.	.	.	.	.
2BB-y	.	2B-y	.	2d	-va-	[2g	.
=23	=23	=23	=23	=23	=23	=23	=23
2C	.	1A	.	2e-X	-she	2g]	.
2D	.	.	.	2d	.	2f#X	.
=24	=24	=24	=24	=24	=24	=24	=24
1GG;	'a.	1BnX;	-'a.-	1d;	'a.	1g;	'a.
=25||	=25||	=25||	=25||	=25||	=25||	=25||	=25||
!	!	!	!	!	!	!LO:TX:a:i:t=God,	!
1r	.	1r	.	1r	.	2g	È
.	.	.	.	.	.	[2b-y	.
=26	=26	=26	=26	=26	=26	=26	=26
1r	.	1r	.	2d	È	2b-]	.
.	.	.	.	[2f	.	4a	.
.	.	.	.	.	.	4g	.
=27	=27	=27	=27	=27	=27	=27	=27
1r	.	1r	.	2f]	.	4a	.
.	.	.	.	.	.	4b-y	.
.	.	.	.	4e	.	[2cc	.
.	.	.	.	4d	.	.	.
=28	=28	=28	=28	=28	=28	=28	=28
1r	.	1r	.	4e	.	4cc]	.
.	.	.	.	4f	.	8b-yL	.
.	.	.	.	.	.	8aJ	.
.	.	.	.	4g	.	4b-y	.
.	.	.	.	4e	.	4cc	.
=29	=29	=29	=29	=29	=29	=29	=29
1r	.	1r	.	2f#X	.	2a	.
.	.	.	.	[2g	.	2b-y	.
=30	=30	=30	=30	=30	=30	=30	=30
1r	.	1r	.	2g]	.	1a	lo-
.	.	.	.	2f#X	lo-	.	.
=31	=31	=31	=31	=31	=31	=31	=31
1r	.	2r	.	2g	-him	1g	-him
.	.	[2c	-ts'-	[2e	ts'-	.	.
=32	=32	=32	=32	=32	=32	=32	=32
2r	.	2c]	.	2e]	.	2r	.
!	!	!	!	!	!	!LO:TX:a:i:t=of hosts,	!
[2F	ts'-	[2A	-va-	[2c	-va-	[2a	ts'
=33	=33	=33	=33	=33	=33	=33	=33
2F]	.	2A]	.	2c]	.	2a]	.
[2D	-va-	2B-y	.	4d	.	4f	va-
.	.	.	.	4e	.	4g	.
=34	=34	=34	=34	=34	=34	=34	=34
4D]	.	1A	.	4f	.	4a	.
8CL	.	.	.	4d	.	4b-y	.
8BB-yJ	.	.	.	.	.	.	.
4AA	.	.	.	[2f	.	[2cc	.
4BB-y	.	.	.	.	.	.	.
=35	=35	=35	=35	=35	=35	=35	=35
1C	.	2G	.	2f]	.	4cc]	.
.	.	.	.	.	.	8b-yL	.
.	.	.	.	.	.	8aJ	.
.	.	2c	.	2e	.	2g	.
=36	=36	=36	=36	=36	=36	=36	=36
1F	-'ot,	1c	-'ot,	1f	-'ot,	1a	-'ot,
=37	=37	=37	=37	=37	=37	=37	=37
!	!	!	!	!	!	!LO:TX:a:i:t=restore us;	!
4G	ha	2r	.	2d	ha-	1b-y	ha-
4F	.	.	.	.	.	.	.
4E-X	.	[2G	ha	2e-X	-shi-	.	.
4D	.	.	.	.	.	.	.
=38	=38	=38	=38	=38	=38	=38	=38
2C	.	2G]	.	2e-X	-ve-	1cc	-shi-
2F	shi-	2A	shi-	2f	-nu,	.	.
=39	=39	=39	=39	=39	=39	=39	=39
4BB-y	-ve-	2.B-y	-ve	2.f	ha	2.dd	-ve-
4C	.	.	.	.	.	.	.
4D	.	.	.	.	.	.	.
4E	.	4G	.	8eL	.	8ccL	.
.	.	.	.	8dJ	.	8b-yJ	.
=40	=40	=40	=40	=40	=40	=40	=40
4.F	.	2A	.	2c	.	[1a	.
8E	.	.	.	.	.	.	.
8DL	.	[2d	.	2f	shi-	.	.
8E	.	.	.	.	.	.	.
8F	.	.	.	.	.	.	.
8GJ	.	.	.	.	.	.	.
=41	=41	=41	=41	=41	=41	=41	=41
1A	.	2d]	.	1e	-ve-	1a]	.
.	.	2c#X	.	.	.	.	.
=42	=42	=42	=42	=42	=42	=42	=42
2D	-nu;	1d	nu;	1f#X	-nu;	1a	-nu;
4D	v'-	.	.	.	.	.	.
4E	-ha-	.	.	.	.	.	.
=43	=43	=43	=43	=43	=43	=43	=43
!	!	!	!	!	!	!LO:TX:a:i:t=brighten your face	!
2F	-er	4c	v'-	2r	.	4a	v'-
.	.	4d	-ha-	.	.	4b-y	-ha-
2C	pa-	4e	-er	4g	v'-	4cc	-er
.	.	4e	pa-	4a	-ha-	4cc	pa-
=44	=44	=44	=44	=44	=44	=44	=44
1G	-nè-	2g	-nè-	4b-y	-er	4.dd	-nè-
.	.	.	.	4b-y	pa-	.	.
.	.	.	.	.	.	8cc	.
.	.	[2d	-ḥa	2g	-nè-	2b-y	.
=45	=45	=45	=45	=45	=45	=45	=45
2D	-ḥa	4d]	.	4f#X	-ḥa	4a	-ḥa
!	!	!	!	!	!	!LO:TX:a:i:t=and we shall be saved.	!
.	.	4d	-v'-	4f#i	v'-	4b-y	v'-
2C	v'-	4e-X	-niv-	4g	-niv-	4cc	-niv-
.	.	4c	-va-	4e	-va-	4a	-va-
=46	=46	=46	=46	=46	=46	=46	=46
2BB-y	-niv-	2d	-she	4f	-she-	8b-yL	-she-
.	.	.	.	.	.	8a	.
.	.	.	.	4d	.	8f	.
.	.	.	.	.	.	8gJ	.
2AA	-va-	2c	'a,	4.e	.	8aL	.
.	.	.	.	.	.	8b-y	.
.	.	.	.	.	.	8cc	.
.	.	.	.	8f	.	8aJ	.
=47	=47	=47	=47	=47	=47	=47	=47
4GG	-she-	[1d	v'-	1g	.	4b-y	.
4AA	.	.	.	.	.	4cc	.
4BB-y	.	.	.	.	.	4dd	.
4C	.	.	.	.	.	8ccL	.
.	.	.	.	.	.	8b-yJ	.
=48	=48	=48	=48	=48	=48	=48	=48
4D	.	2d]	.	4f	-'a,	8aL	.
.	.	.	.	.	.	8b-yJ	.
4E	.	.	.	4g	v'-	2cc	.
4F	.	4c	-niv-	8aL	-niv-	.	.
.	.	.	.	8g	.	.	.
4D	.	4d	-va-	8f	.	8b-yL	.
.	.	.	.	8eJ	.	8aJ	.
=49	=49	=49	=49	=49	=49	=49	=49
2.G	.	4.B-y	-she-	2d	.	4g	.
.	.	.	.	.	.	4a	.
.	.	8A	.	.	.	.	.
.	.	2G	.	2d	-va-	4b-y	.
8FL	.	.	.	.	.	8aL	.
8EJ	.	.	.	.	.	8gJ	.
=50	=50	=50	=50	=50	=50	=50	=50
2D	.	2A	.	1d	-she-	2f#X	.
4BB-y	.	2B-y	.	.	.	[2g	.
4C	.	.	.	.	.	.	.
=51	=51	=51	=51	=51	=51	=51	=51
1D	.	1A	.	[1d	-'a.	2g]	.
.	.	.	.	.	.	2f#X	.
=52	=52	=52	=52	=52	=52	=52	=52
1GG;	-'a.	1BnX;	-'a.	1d;]	.	1g;	-'a.
=53||	=53||	=53||	=53||	=53||	=53||	=53||	=53||
!	!	!	!	!	!	!LO:TX:a:i:t=Lord	!
1GG	A-	1B-y	A-	1d	A-	1g	A-
=54	=54	=54	=54	=54	=54	=54	=54
1G	-do-	1d	-do-	1g	-do-	1b-y	-do-
=55	=55	=55	=55	=55	=55	=55	=55
1G	-nai	1d	-nai	1g	-nai	1b-y	-nai
=56	=56	=56	=56	=56	=56	=56	=56
!	!	!	!	!	!	!LO:TX:a:i:t=God	!
1F	è-	1f	è-	1a	è-	2.cc	è-
.	.	.	.	.	.	4dd	.
=57	=57	=57	=57	=57	=57	=57	=57
8BB-yL	.	2d	.	[1f	.	2b-y	.
8C	.	.	.	.	.	.	.
8D	.	.	.	.	.	.	.
8EJ	.	.	.	.	.	.	.
[2F	.	[2c	.	.	.	4a	.
.	.	.	.	.	.	4g	.
=58	=58	=58	=58	=58	=58	=58	=58
4F]	.	4c]	.	2f]	.	4a	.
8EL	.	4F	.	.	.	4b-y	.
8DJ	.	.	.	.	.	.	.
[2C	.	[2G	.	[2e	.	[2cc	.
=59	=59	=59	=59	=59	=59	=59	=59
4C]	.	4G]	.	4e]	.	4cc]	.
4D	.	4F	.	4d	.	4b-y	.
2E-X	.	[2G	.	4c	.	4a	.
.	.	.	.	4B-y	.	4g	.
=60	=60	=60	=60	=60	=60	=60	=60
1D	-lo-	2G]	.	1d	-lo-	1a	-lo-
.	.	2F#X	-lo-	.	.	.	.
=61	=61	=61	=61	=61	=61	=61	=61
1GG	-him	1G	-him	2d	-him	2g	-him
!	!	!	!	!	!	!LO:TX:a:i:t=of hosts,	!
.	.	.	.	2B-y	ts'-	[2d	ts'-
=62	=62	=62	=62	=62	=62	=62	=62
1D	ts'-	2F	ts'-	2A	-va-	2d]	.
.	.	[2A	-va	2d	.	[2f	-va-
=63	=63	=63	=63	=63	=63	=63	=63
2.F	-va-	2A]	.	2c	.	4f]	.
.	.	.	.	.	.	4g	.
.	.	2d	.	2f	.	[2a	.
4G	.	.	.	.	.	.	.
=64	=64	=64	=64	=64	=64	=64	=64
2A	.	2c#X	.	2e	.	2a]	.
2B-y	.	[2d	.	2d	.	2g	.
=65	=65	=65	=65	=65	=65	=65	=65
1A	.	2d]	.	1e	.	1a	.
.	.	2c#X	.	.	.	.	.
=66	=66	=66	=66	=66	=66	=66	=66
1D	-'ot,	1d	'ot,	1f#X	-'ot,	1a	-'ot,
=67	=67	=67	=67	=67	=67	=67	=67
!	!	!	!	!	!	!LO:TX:a:i:t=restore us;	!
[1D	ha	[1A	ha	2.fnXi	ha-	2.d	ha-
.	.	.	.	4e	-shi-	4e	-shi-
=68	=68	=68	=68	=68	=68	=68	=68
1D]	.	2A]	.	1d	-ve-	8fL	-ve-
.	.	.	.	.	.	8e	.
.	.	.	.	.	.	8d	.
.	.	.	.	.	.	8eJ	.
.	.	2F	shi-	.	.	8fL	.
.	.	.	.	.	.	8g	.
.	.	.	.	.	.	8a	.
.	.	.	.	.	.	8b-yJ	.
=69	=69	=69	=69	=69	=69	=69	=69
1C	shi-	1G	-ve-	2.e	.	2.cc	.
.	.	.	.	4d	.	4b-y	.
=70	=70	=70	=70	=70	=70	=70	=70
1F	-ve-	1A	.	1c	.	8aL	.
.	.	.	.	.	.	8b-y	.
.	.	.	.	.	.	8cc	.
.	.	.	.	.	.	8b-yJ	.
.	.	.	.	.	.	8aL	.
.	.	.	.	.	.	8g	.
.	.	.	.	.	.	8f	.
.	.	.	.	.	.	8eJ	.
=71	=71	=71	=71	=71	=71	=71	=71
2BB-y	.	2B-y	.	2f	.	8dL	.
.	.	.	.	.	.	8e	.
.	.	.	.	.	.	8f	.
.	.	.	.	.	.	8dJ	.
2C	.	4G	.	2e	.	8eL	.
.	.	.	.	.	.	8f	.
.	.	4c	.	.	.	8g	.
.	.	.	.	.	.	8eJ	.
=72	=72	=72	=72	=72	=72	=72	=72
1D	.	1A	.	1d	.	4f#X	.
.	.	.	.	.	.	2g	.
.	.	.	.	.	.	4f#i	.
=73	=73	=73	=73	=73	=73	=73	=73
1GG	-nu;	1BnX	-nu;	1d	-nu;	1g	-nu;
=74	=74	=74	=74	=74	=74	=74	=74
!	!	!	!	!	!	!LO:TX:a:i:t=brighten your face	!
1B-y	ha-	1f	ha-	1b-y	ha-	1dd	ha-
=75	=75	=75	=75	=75	=75	=75	=75
1F	-er	1f	-er	1a	-er	2.cc	-er
.	.	.	.	.	.	4a	pa-
=76	=76	=76	=76	=76	=76	=76	=76
1G	pa-	2d	pa-	4.g	pa	4b-y	-nè
.	.	.	.	.	.	4cc	.
.	.	.	.	8a	.	.	.
.	.	4.g	-nè	2b-y	.	4dd	.
.	.	.	.	.	.	8eeL	.
.	.	8f	.	.	.	8ddJ	.
=77	=77	=77	=77	=77	=77	=77	=77
1A	-nè-	1e	.	1a	nè	4cc#X	.
.	.	.	.	.	.	2dd	.
.	.	.	.	.	.	4cc#i	.
=78	=78	=78	=78	=78	=78	=78	=78
1D	-ḥa	[1f	ḥa	4a	-ḥa	2dd	-ḥa
.	.	.	.	8dL	v'-	.	.
.	.	.	.	8eJ	.	.	.
.	.	.	.	8fL	.	8dL	v'
.	.	.	.	8gJ	.	8e	.
.	.	.	.	4a	.	8f	.
.	.	.	.	.	.	8gJ	.
=79	=79	=79	=79	=79	=79	=79	=79
!	!	!	!	!	!	!LO:TX:a:i:t=and we shall be saved.	!
1D	v'-	2f]	.	8dL	-niv-	4a	.
.	.	.	.	8e	.	.	.
.	.	.	.	8f	.	8dL	niv-
.	.	.	.	8gJ	.	8eJ	.
.	.	2F	v'-	8aL	.	8fL	.
.	.	.	.	8gJ	.	8g	.
.	.	.	.	4f	.	8a	.
.	.	.	.	.	.	8b-yJ	.
=80	=80	=80	=80	=80	=80	=80	=80
2C	-niv-	2G	-niv-	2e	.	2.cc	.
2F	-va-	2A	-va-	2c	-va-	.	.
.	.	.	.	.	.	4f	-va-
=81	=81	=81	=81	=81	=81	=81	=81
2.G	-she-	4.d	-she-	2g	-she-	4.b-y	-she-
.	.	8c	.	.	.	8a	.
.	.	8B-yL	.	4.d	.	8gL	.
.	.	8AJ	.	.	.	8a	.
8FL	.	4G	.	.	.	8b-y	.
8EJ	.	.	.	8e	.	8ccJ	.
=82	=82	=82	=82	=82	=82	=82	=82
1D	.	4.A	.	4.f	.	4dd	.
.	.	.	.	.	.	8dL	.
.	.	8G	.	8e	.	8eJ	.
.	.	2F	.	8dL	.	8fL	.
.	.	.	.	8e	.	8g	.
.	.	.	.	8f	.	8a	.
.	.	.	.	8dJ	.	8b-yJ	.
=83	=83	=83	=83	=83	=83	=83	=83
1C	.	1G	.	8e-XL	.	8ccL	.
.	.	.	.	8f	.	8dd	.
.	.	.	.	8g	.	8ee-X	.
.	.	.	.	8fJ	.	8ddJ	.
.	.	.	.	4.e-i	.	8ee-iL	.
.	.	.	.	.	.	8dd	.
.	.	.	.	.	.	8cc	.
.	.	.	.	8g	.	8b-yJ	.
=84	=84	=84	=84	=84	=84	=84	=84
1D	.	4F#X	.	1d	.	4a	.
.	.	2G	.	.	.	4b-y	.
.	.	.	.	.	.	2a	.
.	.	4F#i	.	.	.	.	.
=85	=85	=85	=85	=85	=85	=85	=85
1GG;l	-'a.	1G;l	-'a.	1d;l	-'a.	1bnX;l	-'a.
==	==	==	==	==	==	==	==
*-	*-	*-	*-	*-	*-	*-	*-
!!!system-decoration: [*]
!!!RDF**kern: i = editorial accidental
!!!RDF**kern: l = terminal long
!!!ENC: Jesse Rodin
!!!END: 2025/4/1
!!!EED: Rupert Peacock
!!!EEV: 2025/04/01
!!!YEC: Copyright 2018 Jesse Rodin, All Rights Reserved
!!!ONB: Translated from MusicXML on 2025/04/01